material/.icons/material/mushroom-off.svg

<svg xmlns="http://www.w3.org/2000/svg" viewBox="0 0 24 24"><path d="M22.1 21.5L2.4 1.7 1.1 3l3 3C2.8 7.6 2 9.7 2 12c0 1.1.9 2 2 2h8.1l1 1H9l-1.3 4.5v.5c0 1.1.9 2 2 2h4.7c1.1 0 2-.9 2-2l-.1-.5-.5-1.8 5.1 5.1 1.2-1.3M7 12c-1.1 0-2-.9-2-2 0-.8.5-1.6 1.3-1.9l2.6 2.6C8.6 11.5 7.8 12 7 12m3-6c0-1.1.9-2 2-2s2 .9 2 2-.9 2-2 2c-.5 0-.9-.2-1.3-.5l6.5 6.5H20c1.1 0 2-.9 2-2 0-5.5-4.5-10-10-10-1.9 0-3.7.6-5.3 1.5l3.7 3.7c-.2-.3-.4-.7-.4-1.2m7 2c1.1 0 2 .9 2 2s-.9 2-2 2-2-.9-2-2 .9-2 2-2z"/></svg>

<?xml version="1.0" encoding="UTF-8"?><!DOCTYPE svg PUBLIC "-//W3C//DTD SVG 1.1//EN" "http://www.w3.org/Graphics/SVG/1.1/DTD/svg11.dtd"><svg xmlns="http://www.w3.org/2000/svg" xmlns:xlink="http://www.w3.org/1999/xlink" version="1.1" id="mdi-mushroom-off" width="24" height="24" viewBox="0 0 24 24"><path d="M22.1 21.5L2.4 1.7L1.1 3L4.1 6C2.8 7.6 2 9.7 2 12C2 13.1 2.9 14 4 14H12.1L13.1 15H9L7.7 19.5V20C7.7 21.1 8.6 22 9.7 22H14.4C15.5 22 16.4 21.1 16.4 20L16.3 19.5L15.8 17.7L20.9 22.8L22.1 21.5M7 12C5.9 12 5 11.1 5 10C5 9.2 5.5 8.4 6.3 8.1L8.9 10.7C8.6 11.5 7.8 12 7 12M10 6C10 4.9 10.9 4 12 4S14 4.9 14 6 13.1 8 12 8C11.5 8 11.1 7.8 10.7 7.5L17.2 14H20C21.1 14 22 13.1 22 12C22 6.5 17.5 2 12 2C10.1 2 8.3 2.6 6.7 3.5L10.4 7.2C10.2 6.9 10 6.5 10 6M17 8C18.1 8 19 8.9 19 10S18.1 12 17 12 15 11.1 15 10 15.9 8 17 8Z" /></svg>
